X: 9
T: Gentle Maiden
I: Gentle Maiden	W-5	G	waltz
C: W-5
C: Irish
M: 3/4
Z: Transcribed to abc by Mary Lou Knack
R: waltz
K: G
D2| "G"G3 A G2| "D7"F2 E2 D2| "G"d4 d2| "C"e2 f2 g2|    "G"d2 c2 B2| "G7"A4 G2| "C"E6-| E4 "D7"F2|
    "G"G3 A G2| "D7"F2 E2 D2| "G"d4 d2| "C"e2 f2 g2|    "G"d3 c B2| "D7"A4 G2| "G"G6-| G4|]
d2| "G"d3 e f2| "C"g4 g2| g4 g2| g2 f2 e2|    "G"d3 c B2| "G7"A4 G2| "C"E6-| E4 "D7"F2|
    "G"G3 A G2| "D7"F2 E2 D2| "G"d4 d2| "C"e2 f2 g2|    "G"d3 c B2| "D7"A4 G2| "G"G6-| G4|]
% %text For use only by Roaring Jelly members 1/2/99

#include "RightHeader.h"
% ---------- page 5 ----------

